Numix-GalliumOS/32/mimetypes/application-video.svg

<?xml version="1.0" encoding="UTF-8" standalone="no"?>
<svg
   xmlns:dc="http://purl.org/dc/elements/1.1/"
   xmlns:cc="http://creativecommons.org/ns#"
   xmlns:rdf="http://www.w3.org/1999/02/22-rdf-syntax-ns#"
   xmlns:svg="http://www.w3.org/2000/svg"
   xmlns="http://www.w3.org/2000/svg"
   xmlns:sodipodi="http://sodipodi.sourceforge.net/DTD/sodipodi-0.dtd"
   xmlns:inkscape="http://www.inkscape.org/namespaces/inkscape"
   width="32"
   height="32"
   viewBox="0 0 32 32"
   id="svg2"
   version="1.1"
   inkscape:version="0.48.5 r10040"
   sodipodi:docname="application-video.svg">
  <metadata
     id="metadata16">
    <rdf:RDF>
      <cc:Work
         rdf:about="">
        <dc:format>image/svg+xml</dc:format>
        <dc:type
           rdf:resource="http://purl.org/dc/dcmitype/StillImage" />
      </cc:Work>
    </rdf:RDF>
  </metadata>
  <defs
     id="defs14" />
  <sodipodi:namedview
     pagecolor="#ffffff"
     bordercolor="#666666"
     borderopacity="1"
     objecttolerance="10"
     gridtolerance="10"
     guidetolerance="10"
     inkscape:pageopacity="0"
     inkscape:pageshadow="2"
     inkscape:window-width="1280"
     inkscape:window-height="970"
     id="namedview12"
     showgrid="true"
     inkscape:zoom="20.85965"
     inkscape:cx="22.11369"
     inkscape:cy="16.071201"
     inkscape:window-x="0"
     inkscape:window-y="0"
     inkscape:window-maximized="1"
     inkscape:current-layer="svg2">
    <inkscape:grid
       type="xygrid"
       id="grid3004" />
  </sodipodi:namedview>
  <path
     style="fill:#2f238f;fill-opacity:1"
     d="M 5.335888,2.977e-4 C 4.648414,3.126e-4 4,0.6767885 4,1.3940318 L 4,30.606268 C 4,31.282757 4.687474,32 5.335888,32 l 21.327332,0 c 0.648414,0 1.335888,-0.717243 1.335888,-1.393732 L 28,9.0000003 l -9,-9 z"
     id="path4-1"
     inkscape:connector-curvature="0"
     sodipodi:nodetypes="ssssssccs" />
  <path
     style="fill:#000000;fill-opacity:0.19599998"
     d="M 21,9.0000003 28,16 28,9.0000003 z"
     id="path6-4"
     inkscape:connector-curvature="0"
     sodipodi:nodetypes="cccc" />
  <path
     style="fill:#ffffff;fill-opacity:0.39200003"
     d="m 19.000306,2.977e-4 8.991594,8.9997026 -7.613262,0 c -0.672951,0 -1.378332,-0.7134896 -1.378332,-1.3864402 z"
     id="path8-6"
     inkscape:connector-curvature="0"
     sodipodi:nodetypes="ccssc" />
  <path
     style="fill:#ffffff"
     d="M 16,11 C 12.145284,11 9,14.142103 9,17.997948 9,21.853794 12.145284,25 16,25 19.854716,25 23,21.853794 23,17.997948 23,14.142103 19.854716,11 16,11 z m 0,1.747435 c 2.90744,0 5.248975,2.342221 5.248975,5.250513 0,2.912395 -2.341535,5.250514 -5.248975,5.250514 -2.90744,0 -5.248975,-2.338119 -5.248975,-5.250514 0,-2.908292 2.341535,-5.250513 5.248975,-5.250513 z m -2,2.249634 0,6.001759 5,-3.00088 z"
     id="path10"
     inkscape:connector-curvature="0"
     sodipodi:nodetypes="sssssssssscccc" />
</svg>

<svg xmlns="http://www.w3.org/2000/svg" viewBox="0 0 32 32">
 <path d="m 5.336 0 c -0.687 0 -1.336 0.676 -1.336 1.394 l 0 29.21 c 0 0.676 0.687 1.394 1.336 1.394 l 21.327 0 c 0.648 0 1.336 -0.717 1.336 -1.394 l 0.001 -21.606 l -9 -9 z" style="fill:#2f238f;fill-opacity:1"/>
 <path d="m 21 9 7 7 0 -7 z" style="fill:#000;fill-opacity:0.196"/>
 <path d="m 19 0 8.992 9 -7.613 0 c -0.673 0 -1.378 -0.713 -1.378 -1.386 z" style="fill:#fff;fill-opacity:0.392"/>
 <path d="m 16 11 c -3.855 0 -7 3.142 -7 6.998 0 3.856 3.145 7 7 7 3.855 0 7 -3.146 7 -7 0 -3.856 -3.145 -6.998 -7 -6.998 z m 0 1.747 c 2.907 0 5.249 2.342 5.249 5.251 0 2.912 -2.342 5.251 -5.249 5.251 -2.907 0 -5.249 -2.338 -5.249 -5.251 0 -2.908 2.342 -5.251 5.249 -5.251 z m -2 2.25 0 6 5 -3 z" style="fill:#fff"/>
</svg>
